X:1
T:Title
%%score { ( 1 4 ) | ( 2 3 ) }
L:1/8
M:6/8
K:F
V:1 treble nm="Grand Piano"
V:4 treble 
V:2 bass 
V:3 bass 
V:1
 z3 z2[Q:1/4=100] F | A2 A [EA]2 G | G F2- F2 A | c2 d c2 F | [EG]3- [EG]2 [FA] | %5
 [GB]2 [^FA] [GB]2 [Ed] | [Fc] [CFA]2- [CFA]2 [B,EG] | [A,DF]2 [A,DF] [=B,DF]2 [B,FA] | %8
 [CEG]3- [CEG]2 [Fc] | [Ed]2 [Ec] [EB]2 [EG] | G F2- F2 c | [Ed]2 [Ec] [EB]2 [EG] | %12
 [FA]2 [GB] [Ac]3 |[M:1/8] A |[M:3/4] A2 A A2 A | cB- B3 [DG] | F3 E FG |[M:5/8] F-F- F3 | %18
[M:1/8] A |[M:3/4] [Ec]2 [EG][EG] A[CGB] | [FA]6 | [=B,FA]2 [B,FG] [B,FG]2 [B,FA] | %22
[M:5/8] [CEG]-[CEG]- [CEG]3 |[M:1/8] A |[M:3/4] A2 A A2 A | cB- B3 [DG] | F3 E FG | %27
[M:13/8] F-F- F3 z z z z z z z2 |] %28
V:2
 z3 z2 [F,A,] | [F,CF]2 [F,CF] [C,C]2 [C,B,C] | [F,B,C] [F,A,C]2- [F,A,C]2 [F,CF] | %3
 [F,A,F]2 [F,B,F] [F,A,F]2 [F,A,] | [C,C]3- [C,C]2 [C,C] | [C,C]2 [C,C] [C,C]2 [C,B,] | %6
 [F,A,] F,2- F,2 C, | D,2 D, G,,2 G,, | C,3- C,2 [C,A,] | [C,B,]2 [C,A,] [C,G,]2 [C,B,] | %10
 [F,B,C] [F,A,C]2- [F,A,C]2 [F,A,F] | [C,B,]2 [C,A,] [C,G,]2 [C,C] | [F,C]2 [F,C] [F,C]3 | %13
[M:1/8] [F,CF] |[M:3/4] [F,CF]2 [F,CF] [^F,C_E]2 [F,CE] | [G,B,D][G,B,D]- [G,B,D]3 [B,,B,] | %16
 [C,A,C]3 G, A,[C,B,C] |[M:5/8] [F,A,C]-[F,A,C]- [F,A,C]3 |[M:1/8] [F,F] | %19
[M:3/4] [C,G,]2 .[C,C]2 FC, | F,2 F, F,2 F, | D,2 D, G,,2 G,, |[M:5/8] C,-C,- C,3 |[M:1/8] [F,CF] | %24
[M:3/4] [F,CF]2 [F,CF] [^F,C_E]2 [F,CE] | [G,B,D][G,B,D]- [G,B,D]3 [B,,B,] | %26
 [C,A,C]3 G, A,[C,B,C] |[M:13/8] [F,A,C]-[F,A,C]- [F,A,C]3 z z z z z z z2 |] %28
V:3
 x6 | x6 | x6 | x6 | x6 | x6 | x6 | x6 | x6 | x6 | x6 | x6 | x6 |[M:1/8] x |[M:3/4] x6 | x6 | %16
 z2 z .[C,C]3 |[M:5/8] x5 |[M:1/8] x |[M:3/4] z2 z .[C,C]3 | x6 | x6 |[M:5/8] x5 |[M:1/8] x | %24
[M:3/4] x6 | x6 | z2 z .[C,C]3 |[M:13/8] x13 |] %28
V:4
 x6 | x6 | x6 | x6 | x6 | x6 | x6 | x6 | x6 | x6 | x6 | x6 | x6 |[M:1/8] x |[M:3/4] x6 | x6 | x6 | %17
[M:5/8] x5 |[M:1/8] x |[M:3/4] x6 | C2 C C2 [CFA] | x6 |[M:5/8] x5 |[M:1/8] x |[M:3/4] x6 | x6 | %26
 x6 |[M:13/8] x13 |] %28

